src/img/illustrations/icons/laptop-globe.svg

<svg version="1.1" id="Calque_1" xmlns="http://www.w3.org/2000/svg" x="0" y="0" viewBox="0 0 200 200" style="enable-background:new 0 0 200 200" xml:space="preserve"><style>.st0{fill:#4fc1ea}</style><g id="XMLID_95_"><g id="XMLID_780_"><path id="XMLID_816_" class="st0" d="M68.1 129.4h59c4.8 0 8.8-3.9 8.8-8.8V86.8c0-4.8-3.9-8.8-8.8-8.8h-59c-4.8 0-8.8 3.9-8.8 8.8v33.8c0 4.9 4 8.8 8.8 8.8zm-4.7-42.6c0-2.6 2.1-4.7 4.7-4.7h59c2.6 0 4.7 2.1 4.7 4.7v33.8c0 2.6-2.1 4.7-4.7 4.7h-59c-2.6 0-4.7-2.1-4.7-4.7V86.8z"/><path id="XMLID_781_" class="st0" d="M135.8 131.7H59.5c-3.3 0-6 2.7-6 6v1.4c0 3.3 2.7 6 6 6h76.4c3.3 0 6-2.7 6-6v-1.4c-.1-3.3-2.8-6-6.1-6zm2 7.4c0 1.1-.9 1.9-1.9 1.9H59.5c-1.1 0-1.9-.9-1.9-1.9v-1.4c0-1.1.9-1.9 1.9-1.9h76.4c1.1 0 1.9.9 1.9 1.9v1.4z"/></g><g id="XMLID_662_" style="opacity:.3"><path id="XMLID_663_" d="M121.3 39C100.7 39 84 55.8 84 76.4V78h43.2c.9 0 1.8.1 2.6.4h7.6c-.1 4.1-.6 8-1.4 11.6v12.3c.8-1.5 1.5-3.1 2.1-4.8 3.4-.4 6.9-1 10.3-1.7-3.2 4.4-7.5 8-12.4 10.4v4.5c13.4-5.7 22.8-19 22.8-34.4C158.7 55.8 142 39 121.3 39zm-20.1 35.4H88.1c.3-4.5 1.4-8.8 3.3-12.6 3.9-.9 7.9-1.7 11.8-2.2-1.1 4.4-1.8 9.4-2 14.8zM94.4 57c3.9-5.4 9.5-9.7 15.9-11.9-2.2 2.7-4.1 6.2-5.6 10.2-3.5.4-6.9.9-10.3 1.7zm24.9 17.4h-14c.2-5.6 1-10.8 2.4-15.4 3.8-.4 7.7-.6 11.6-.7v16.1zm0-20.2c-3.4.1-6.7.2-10.1.5 2.5-6 6.1-10.2 10.1-11.3v10.8zm4.1-10.8c4 1.1 7.5 5.3 10.1 11.3-3.3-.3-6.7-.5-10.1-.5V43.4zm0 31V58.3c3.9.1 7.7.3 11.6.7 1.4 4.6 2.3 9.8 2.4 15.4h-14zm14.7-19.2c-1.5-4.1-3.4-7.6-5.6-10.2 6.4 2.3 12 6.5 15.9 11.9-3.5-.7-6.9-1.2-10.3-1.7zm13.1 6.6c1.9 3.8 3.1 8.1 3.3 12.6h-13.1c-.1-5.3-.9-10.4-2.1-14.8 4.1.5 8 1.2 11.9 2.2zm0 29.3c-3.9.9-7.9 1.7-11.8 2.2 1.2-4.5 1.9-9.5 2.1-14.8h13.1c-.3 4.4-1.5 8.7-3.4 12.6z" style="fill:#585763"/></g></g></svg>

<?xml version="1.0" encoding="utf-8"?>
<!-- Generator: Adobe Illustrator 19.0.0, SVG Export Plug-In . SVG Version: 6.00 Build 0)  -->
<svg version="1.1" id="Calque_1" xmlns="http://www.w3.org/2000/svg" xmlns:xlink="http://www.w3.org/1999/xlink" x="0px" y="0px"
	 viewBox="0 0 200 200" style="enable-background:new 0 0 200 200;" xml:space="preserve">
<style type="text/css">
	.st0{fill:#4FC1EA;}
	.st1{opacity:0.3;}
	.st2{fill:#585763;}
</style>
<g id="XMLID_95_">
	<g id="XMLID_780_">
		<path id="XMLID_816_" class="st0" d="M68.1,129.4h59c4.8,0,8.8-3.9,8.8-8.8V86.8c0-4.8-3.9-8.8-8.8-8.8h-59
			c-4.8,0-8.8,3.9-8.8,8.8v33.8C59.3,125.5,63.3,129.4,68.1,129.4z M63.4,86.8c0-2.6,2.1-4.7,4.7-4.7h59c2.6,0,4.7,2.1,4.7,4.7v33.8
			c0,2.6-2.1,4.7-4.7,4.7h-59c-2.6,0-4.7-2.1-4.7-4.7V86.8z"/>
		<path id="XMLID_781_" class="st0" d="M135.8,131.7H59.5c-3.3,0-6,2.7-6,6v1.4c0,3.3,2.7,6,6,6h76.4c3.3,0,6-2.7,6-6v-1.4
			C141.8,134.4,139.1,131.7,135.8,131.7z M137.8,139.1c0,1.1-0.9,1.9-1.9,1.9H59.5c-1.1,0-1.9-0.9-1.9-1.9v-1.4
			c0-1.1,0.9-1.9,1.9-1.9h76.4c1.1,0,1.9,0.9,1.9,1.9V139.1z"/>
	</g>
	<g id="XMLID_662_" class="st1">
		<path id="XMLID_663_" class="st2" d="M121.3,39C100.7,39,84,55.8,84,76.4c0,0.6,0,1.1,0,1.6h43.2c0.9,0,1.8,0.1,2.6,0.4h7.6
			c-0.1,4.1-0.6,8-1.4,11.6v12.3c0.8-1.5,1.5-3.1,2.1-4.8c3.4-0.4,6.9-1,10.3-1.7c-3.2,4.4-7.5,8-12.4,10.4v4.5
			c13.4-5.7,22.8-19,22.8-34.4C158.7,55.8,142,39,121.3,39z M101.2,74.4H88.1c0.3-4.5,1.4-8.8,3.3-12.6l0,0
			c3.9-0.9,7.9-1.7,11.8-2.2C102.1,64,101.4,69,101.2,74.4z M94.4,57c3.9-5.4,9.5-9.7,15.9-11.9c-2.2,2.7-4.1,6.2-5.6,10.2
			C101.2,55.7,97.8,56.2,94.4,57z M119.3,74.4h-14c0.2-5.6,1-10.8,2.4-15.4c3.8-0.4,7.7-0.6,11.6-0.7V74.4z M119.3,54.2
			c-3.4,0.1-6.7,0.2-10.1,0.5c2.5-6,6.1-10.2,10.1-11.3V54.2z M123.4,43.4c4,1.1,7.5,5.3,10.1,11.3c-3.3-0.3-6.7-0.5-10.1-0.5V43.4z
			 M123.4,74.4V58.3c3.9,0.1,7.7,0.3,11.6,0.7c1.4,4.6,2.3,9.8,2.4,15.4H123.4z M138.1,55.2c-1.5-4.1-3.4-7.6-5.6-10.2
			c6.4,2.3,12,6.5,15.9,11.9C144.9,56.2,141.5,55.7,138.1,55.2z M151.2,61.8L151.2,61.8c1.9,3.8,3.1,8.1,3.3,12.6h-13.1
			c-0.1-5.3-0.9-10.4-2.1-14.8C143.4,60.1,147.3,60.8,151.2,61.8z M151.2,91.1L151.2,91.1c-3.9,0.9-7.9,1.7-11.8,2.2
			c1.2-4.5,1.9-9.5,2.1-14.8h13.1C154.3,82.9,153.1,87.2,151.2,91.1z"/>
	</g>
</g>
</svg>
